src/assets/icons/weeks,simple,50.svg

<svg width="48" height="48" viewBox="0 0 48 48" fill="none" xmlns="http://www.w3.org/2000/svg">
<rect opacity="0.2" x="5" y="5" width="38" height="38" rx="4" fill="black"/>
<path d="M5 13C5 9.22876 5 7.34315 6.17157 6.17157C7.34315 5 9.22876 5 13 5H35C38.7712 5 40.6569 5 41.8284 6.17157C43 7.34315 43 9.22876 43 13V15H5V13Z" fill="black"/>
<path d="M15.7937 38.2386C19.68 38.2386 22.3221 35.7074 22.3136 32.179C22.3221 28.8381 19.9869 26.4347 16.842 26.4347C15.3079 26.4347 13.9869 27.0739 13.3732 27.9347H13.271L13.7227 23.5625H21.3505V20.5455H10.68L9.85334 29.75L13.1346 30.3381C13.6715 29.6136 14.7113 29.1619 15.7425 29.1619C17.4982 29.1705 18.7596 30.4403 18.7596 32.2727C18.7596 34.0881 17.5238 35.3409 15.7937 35.3409C14.3278 35.3409 13.1431 34.4205 13.0579 33.0653H9.47834C9.54652 36.0824 12.18 38.2386 15.7937 38.2386ZM31.7312 38.3835C36.1204 38.3835 38.771 35.0426 38.7795 29.2898C38.788 23.5795 36.1033 20.3068 31.7312 20.3068C27.3505 20.3068 24.6914 23.571 24.6829 29.2898C24.6658 35.0256 27.3335 38.375 31.7312 38.3835ZM31.7312 35.3239C29.7283 35.3239 28.4329 33.3125 28.4414 29.2898C28.4499 25.3267 29.7369 23.3324 31.7312 23.3324C33.717 23.3324 35.0124 25.3267 35.0124 29.2898C35.021 33.3125 33.7255 35.3239 31.7312 35.3239Z" fill="black"/>
</svg>

<svg xmlns="http://www.w3.org/2000/svg" width="48" height="48" fill="none" viewBox="0 0 48 48">
  <rect width="38" height="38" x="5" y="5" fill="#000" opacity=".2" rx="4"/>
  <path fill="#000" d="M5 13c0-3.771 0-5.657 1.172-6.828C7.343 5 9.229 5 13 5h22c3.771 0 5.657 0 6.828 1.172C43 7.343 43 9.229 43 13v2H5v-2zM15.794 38.239c3.886 0 6.528-2.532 6.52-6.06.008-3.34-2.327-5.744-5.472-5.744-1.534 0-2.855.639-3.469 1.5h-.102l.452-4.372h7.627v-3.017H10.68l-.827 9.204 3.282.588c.537-.724 1.576-1.176 2.607-1.176 1.756.009 3.018 1.278 3.018 3.11 0 1.816-1.236 3.069-2.966 3.069-1.466 0-2.65-.92-2.736-2.276h-3.58c.069 3.017 2.702 5.174 6.316 5.174zm15.937.145c4.39 0 7.04-3.341 7.048-9.094.009-5.71-2.676-8.983-7.048-8.983-4.38 0-7.04 3.264-7.048 8.983-.017 5.736 2.65 9.085 7.048 9.093zm0-3.06c-2.003 0-3.298-2.011-3.29-6.034.009-3.963 1.296-5.958 3.29-5.958 1.986 0 3.281 1.995 3.281 5.958.009 4.023-1.287 6.034-3.28 6.034z"/>
</svg>
